groups/aromatics/corranulene.svg

<?xml version='1.0' encoding='iso-8859-1'?>
<svg version='1.1' baseProfile='full'
              xmlns='http://www.w3.org/2000/svg'
                      xmlns:rdkit='http://www.rdkit.org/xml'
                      xmlns:xlink='http://www.w3.org/1999/xlink'
                  xml:space='preserve'
width='256px' height='256px' viewBox='0 0 256 256'>
<!-- END OF HEADER -->
<rect style='opacity:1.0;fill:#FFFFFF;stroke:none' width='256.0' height='256.0' x='0.0' y='0.0'> </rect>
<path class='bond-0 atom-0 atom-1' d='M 41.7,224.5 L 78.2,203.3' style='fill:none;fill-rule:evenodd;stroke:#000000;stroke-width:2.0px;stroke-linecap:butt;stroke-linejoin:miter;stroke-opacity:1' />
<path class='bond-1 atom-1 atom-2' d='M 78.2,203.3 L 114.9,224.3' style='fill:none;fill-rule:evenodd;stroke:#000000;stroke-width:2.0px;stroke-linecap:butt;stroke-linejoin:miter;stroke-opacity:1' />
<path class='bond-1 atom-1 atom-2' d='M 85.2,199.2 L 114.8,216.2' style='fill:none;fill-rule:evenodd;stroke:#000000;stroke-width:2.0px;stroke-linecap:butt;stroke-linejoin:miter;stroke-opacity:1' />
<path class='bond-2 atom-2 atom-3' d='M 114.9,224.3 L 151.4,203.0' style='fill:none;fill-rule:evenodd;stroke:#000000;stroke-width:2.0px;stroke-linecap:butt;stroke-linejoin:miter;stroke-opacity:1' />
<path class='bond-3 atom-3 atom-4' d='M 151.4,203.0 L 188.0,224.0' style='fill:none;fill-rule:evenodd;stroke:#000000;stroke-width:2.0px;stroke-linecap:butt;stroke-linejoin:miter;stroke-opacity:1' />
<path class='bond-3 atom-3 atom-4' d='M 158.4,199.0 L 188.0,215.9' style='fill:none;fill-rule:evenodd;stroke:#000000;stroke-width:2.0px;stroke-linecap:butt;stroke-linejoin:miter;stroke-opacity:1' />
<path class='bond-4 atom-4 atom-5' d='M 188.0,224.0 L 224.5,202.8' style='fill:none;fill-rule:evenodd;stroke:#000000;stroke-width:2.0px;stroke-linecap:butt;stroke-linejoin:miter;stroke-opacity:1' />
<path class='bond-5 atom-5 atom-6' d='M 224.5,202.8 L 224.1,76.0' style='fill:none;fill-rule:evenodd;stroke:#000000;stroke-width:2.0px;stroke-linecap:butt;stroke-linejoin:miter;stroke-opacity:1' />
<path class='bond-5 atom-5 atom-6' d='M 217.5,198.7 L 217.1,88.2' style='fill:none;fill-rule:evenodd;stroke:#000000;stroke-width:2.0px;stroke-linecap:butt;stroke-linejoin:miter;stroke-opacity:1' />
<path class='bond-6 atom-6 atom-7' d='M 224.1,76.0 L 223.9,33.8' style='fill:none;fill-rule:evenodd;stroke:#000000;stroke-width:2.0px;stroke-linecap:butt;stroke-linejoin:miter;stroke-opacity:1' />
<path class='bond-7 atom-7 atom-8' d='M 223.9,33.8 L 187.3,12.8' style='fill:none;fill-rule:evenodd;stroke:#000000;stroke-width:2.0px;stroke-linecap:butt;stroke-linejoin:miter;stroke-opacity:1' />
<path class='bond-7 atom-7 atom-8' d='M 216.9,37.9 L 187.3,20.9' style='fill:none;fill-rule:evenodd;stroke:#000000;stroke-width:2.0px;stroke-linecap:butt;stroke-linejoin:miter;stroke-opacity:1' />
<path class='bond-8 atom-8 atom-9' d='M 187.3,12.8 L 150.8,34.1' style='fill:none;fill-rule:evenodd;stroke:#000000;stroke-width:2.0px;stroke-linecap:butt;stroke-linejoin:miter;stroke-opacity:1' />
<path class='bond-9 atom-9 atom-10' d='M 150.8,34.1 L 150.9,76.3' style='fill:none;fill-rule:evenodd;stroke:#000000;stroke-width:2.0px;stroke-linecap:butt;stroke-linejoin:miter;stroke-opacity:1' />
<path class='bond-10 atom-10 atom-11' d='M 150.9,76.3 L 114.4,97.6' style='fill:none;fill-rule:evenodd;stroke:#000000;stroke-width:2.0px;stroke-linecap:butt;stroke-linejoin:miter;stroke-opacity:1' />
<path class='bond-10 atom-10 atom-11' d='M 143.9,72.3 L 114.4,89.5' style='fill:none;fill-rule:evenodd;stroke:#000000;stroke-width:2.0px;stroke-linecap:butt;stroke-linejoin:miter;stroke-opacity:1' />
<path class='bond-11 atom-11 atom-12' d='M 114.4,97.6 L 114.6,139.8' style='fill:none;fill-rule:evenodd;stroke:#000000;stroke-width:2.0px;stroke-linecap:butt;stroke-linejoin:miter;stroke-opacity:1' />
<path class='bond-12 atom-12 atom-13' d='M 114.6,139.8 L 151.2,160.8' style='fill:none;fill-rule:evenodd;stroke:#000000;stroke-width:2.0px;stroke-linecap:butt;stroke-linejoin:miter;stroke-opacity:1' />
<path class='bond-13 atom-13 atom-14' d='M 151.2,160.8 L 187.6,97.3' style='fill:none;fill-rule:evenodd;stroke:#000000;stroke-width:2.0px;stroke-linecap:butt;stroke-linejoin:miter;stroke-opacity:1' />
<path class='bond-13 atom-13 atom-14' d='M 148.6,151.2 L 178.0,99.9' style='fill:none;fill-rule:evenodd;stroke:#000000;stroke-width:2.0px;stroke-linecap:butt;stroke-linejoin:miter;stroke-opacity:1' />
<path class='bond-14 atom-12 atom-15' d='M 114.6,139.8 L 78.0,161.0' style='fill:none;fill-rule:evenodd;stroke:#000000;stroke-width:2.0px;stroke-linecap:butt;stroke-linejoin:miter;stroke-opacity:1' />
<path class='bond-14 atom-12 atom-15' d='M 114.6,147.9 L 85.1,165.1' style='fill:none;fill-rule:evenodd;stroke:#000000;stroke-width:2.0px;stroke-linecap:butt;stroke-linejoin:miter;stroke-opacity:1' />
<path class='bond-15 atom-15 atom-16' d='M 78.0,161.0 L 41.4,140.1' style='fill:none;fill-rule:evenodd;stroke:#000000;stroke-width:2.0px;stroke-linecap:butt;stroke-linejoin:miter;stroke-opacity:1' />
<path class='bond-16 atom-16 atom-17' d='M 41.4,140.1 L 41.2,97.8' style='fill:none;fill-rule:evenodd;stroke:#000000;stroke-width:2.0px;stroke-linecap:butt;stroke-linejoin:miter;stroke-opacity:1' />
<path class='bond-16 atom-16 atom-17' d='M 48.4,136.0 L 48.2,101.8' style='fill:none;fill-rule:evenodd;stroke:#000000;stroke-width:2.0px;stroke-linecap:butt;stroke-linejoin:miter;stroke-opacity:1' />
<path class='bond-17 atom-17 atom-18' d='M 41.2,97.8 L 77.7,76.6' style='fill:none;fill-rule:evenodd;stroke:#000000;stroke-width:2.0px;stroke-linecap:butt;stroke-linejoin:miter;stroke-opacity:1' />
<path class='bond-18 atom-18 atom-19' d='M 77.7,76.6 L 77.6,34.3' style='fill:none;fill-rule:evenodd;stroke:#000000;stroke-width:2.0px;stroke-linecap:butt;stroke-linejoin:miter;stroke-opacity:1' />
<path class='bond-18 atom-18 atom-19' d='M 84.7,72.5 L 84.6,38.3' style='fill:none;fill-rule:evenodd;stroke:#000000;stroke-width:2.0px;stroke-linecap:butt;stroke-linejoin:miter;stroke-opacity:1' />
<path class='bond-19 atom-19 atom-20' d='M 77.6,34.3 L 114.1,13.1' style='fill:none;fill-rule:evenodd;stroke:#000000;stroke-width:2.0px;stroke-linecap:butt;stroke-linejoin:miter;stroke-opacity:1' />
<path class='bond-20 atom-15 atom-1' d='M 78.0,161.0 L 78.2,203.3' style='fill:none;fill-rule:evenodd;stroke:#000000;stroke-width:2.0px;stroke-linecap:butt;stroke-linejoin:miter;stroke-opacity:1' />
<path class='bond-21 atom-13 atom-3' d='M 151.2,160.8 L 151.4,203.0' style='fill:none;fill-rule:evenodd;stroke:#000000;stroke-width:2.0px;stroke-linecap:butt;stroke-linejoin:miter;stroke-opacity:1' />
<path class='bond-22 atom-14 atom-6' d='M 187.6,97.3 L 224.1,76.0' style='fill:none;fill-rule:evenodd;stroke:#000000;stroke-width:2.0px;stroke-linecap:butt;stroke-linejoin:miter;stroke-opacity:1' />
<path class='bond-23 atom-20 atom-9' d='M 114.1,13.1 L 150.8,34.1' style='fill:none;fill-rule:evenodd;stroke:#000000;stroke-width:2.0px;stroke-linecap:butt;stroke-linejoin:miter;stroke-opacity:1' />
<path class='bond-23 atom-20 atom-9' d='M 114.1,21.1 L 143.8,38.1' style='fill:none;fill-rule:evenodd;stroke:#000000;stroke-width:2.0px;stroke-linecap:butt;stroke-linejoin:miter;stroke-opacity:1' />
<path class='bond-24 atom-14 atom-10' d='M 187.6,97.3 L 150.9,76.3' style='fill:none;fill-rule:evenodd;stroke:#000000;stroke-width:2.0px;stroke-linecap:butt;stroke-linejoin:miter;stroke-opacity:1' />
<path class='bond-25 atom-18 atom-11' d='M 77.7,76.6 L 114.4,97.6' style='fill:none;fill-rule:evenodd;stroke:#000000;stroke-width:2.0px;stroke-linecap:butt;stroke-linejoin:miter;stroke-opacity:1' />
<path d='M 113.0,223.2 L 114.9,224.3 L 116.7,223.2' style='fill:none;stroke:#000000;stroke-width:2.0px;stroke-linecap:butt;stroke-linejoin:miter;stroke-miterlimit:10;stroke-opacity:1;' />
<path d='M 186.2,223.0 L 188.0,224.0 L 189.9,223.0' style='fill:none;stroke:#000000;stroke-width:2.0px;stroke-linecap:butt;stroke-linejoin:miter;stroke-miterlimit:10;stroke-opacity:1;' />
<path d='M 222.7,203.8 L 224.5,202.8 L 224.5,196.4' style='fill:none;stroke:#000000;stroke-width:2.0px;stroke-linecap:butt;stroke-linejoin:miter;stroke-miterlimit:10;stroke-opacity:1;' />
<path d='M 223.9,35.9 L 223.9,33.8 L 222.1,32.7' style='fill:none;stroke:#000000;stroke-width:2.0px;stroke-linecap:butt;stroke-linejoin:miter;stroke-miterlimit:10;stroke-opacity:1;' />
<path d='M 189.1,13.8 L 187.3,12.8 L 185.4,13.9' style='fill:none;stroke:#000000;stroke-width:2.0px;stroke-linecap:butt;stroke-linejoin:miter;stroke-miterlimit:10;stroke-opacity:1;' />
<path d='M 43.2,141.1 L 41.4,140.1 L 41.4,137.9' style='fill:none;stroke:#000000;stroke-width:2.0px;stroke-linecap:butt;stroke-linejoin:miter;stroke-miterlimit:10;stroke-opacity:1;' />
<path d='M 41.2,99.9 L 41.2,97.8 L 43.1,96.8' style='fill:none;stroke:#000000;stroke-width:2.0px;stroke-linecap:butt;stroke-linejoin:miter;stroke-miterlimit:10;stroke-opacity:1;' />
<path d='M 77.6,36.4 L 77.6,34.3 L 79.4,33.3' style='fill:none;stroke:#000000;stroke-width:2.0px;stroke-linecap:butt;stroke-linejoin:miter;stroke-miterlimit:10;stroke-opacity:1;' />
<path d='M 112.3,14.1 L 114.1,13.1 L 115.9,14.1' style='fill:none;stroke:#000000;stroke-width:2.0px;stroke-linecap:butt;stroke-linejoin:miter;stroke-miterlimit:10;stroke-opacity:1;' />
<path class='atom-1' d='M52.3212,242.8 C53.8341,241.919 52.6532,239.891 51.1403,240.772 C49.6274,241.653 48.4465,239.625 49.9594,238.744 C51.4722,237.863 50.2913,235.835 48.7784,236.716 C47.2656,237.596 46.0846,235.568 47.5975,234.687 C49.1103,233.806 47.9294,231.778 46.4165,232.659 C44.9037,233.54 43.7228,231.512 45.2356,230.631 C46.7485,229.75 45.5675,227.722 44.0547,228.603 C42.5418,229.484 41.3609,227.456 42.8737,226.575 C44.3866,225.694 43.2056,223.666 41.6928,224.547 C40.1799,225.427 38.999,223.399 40.5119,222.518 C42.0247,221.638 40.8438,219.609 39.3309,220.49 C37.8181,221.371 36.6371,219.343 38.15,218.462 C39.6628,217.581 38.4819,215.553 36.969,216.434 C35.4562,217.315 34.2752,215.287 35.7881,214.406 C37.301,213.525 36.12,211.497 34.6072,212.378 C33.0943,213.259 31.9134,211.23 33.4262,210.35 C34.9391,209.469 33.7581,207.44 32.2453,208.321 C30.7324,209.202 29.5515,207.174 31.0643,206.293' style='fill:none;stroke:#7F7F7F;stroke-width:2.0px;stroke-linecap:butt;stroke-linejoin:miter;stroke-opacity:1' />
</svg>

<svg height="256" viewBox="0 0 256 256" width="256" xmlns="http://www.w3.org/2000/svg"><path d="m0 0h256v256h-256z" fill="#fff"/><g fill="none" stroke-width="2"><path d="m41.7 224.5 36.5-21.2" stroke="#000"/><path d="m78.2 203.3 36.7 21" stroke="#000"/><path d="m85.2 199.2 29.6 17" stroke="#000"/><path d="m114.9 224.3 36.5-21.3" stroke="#000"/><path d="m151.4 203 36.6 21" stroke="#000"/><path d="m158.4 199 29.6 16.9" stroke="#000"/><path d="m188 224 36.5-21.2" stroke="#000"/><path d="m224.5 202.8-.4-126.8" stroke="#000"/><path d="m217.5 198.7-.4-110.5" stroke="#000"/><path d="m224.1 76-.2-42.2" stroke="#000"/><path d="m223.9 33.8-36.6-21" stroke="#000"/><path d="m216.9 37.9-29.6-17" stroke="#000"/><path d="m187.3 12.8-36.5 21.3" stroke="#000"/><path d="m150.8 34.1.1 42.2" stroke="#000"/><path d="m150.9 76.3-36.5 21.3" stroke="#000"/><path d="m143.9 72.3-29.5 17.2" stroke="#000"/><path d="m114.4 97.6.2 42.2" stroke="#000"/><path d="m114.6 139.8 36.6 21" stroke="#000"/><path d="m151.2 160.8 36.4-63.5" stroke="#000"/><path d="m148.6 151.2 29.4-51.3" stroke="#000"/><path d="m114.6 139.8-36.6 21.2" stroke="#000"/><path d="m114.6 147.9-29.5 17.2" stroke="#000"/><path d="m78 161-36.6-20.9" stroke="#000"/><path d="m41.4 140.1-.2-42.3" stroke="#000"/><path d="m48.4 136-.2-34.2" stroke="#000"/><path d="m41.2 97.8 36.5-21.2" stroke="#000"/><path d="m77.7 76.6-.1-42.3" stroke="#000"/><path d="m84.7 72.5-.1-34.2" stroke="#000"/><path d="m77.6 34.3 36.5-21.2" stroke="#000"/><path d="m78 161 .2 42.3" stroke="#000"/><path d="m151.2 160.8.2 42.2" stroke="#000"/><path d="m187.6 97.3 36.5-21.3" stroke="#000"/><path d="m114.1 13.1 36.7 21" stroke="#000"/><path d="m114.1 21.1 29.7 17" stroke="#000"/><path d="m187.6 97.3-36.7-21" stroke="#000"/><path d="m77.7 76.6 36.7 21" stroke="#000"/><path d="m113 223.2 1.9 1.1 1.8-1.1" stroke="#000" stroke-miterlimit="10"/><path d="m186.2 223 1.8 1 1.9-1" stroke="#000" stroke-miterlimit="10"/><path d="m222.7 203.8 1.8-1v-6.4" stroke="#000" stroke-miterlimit="10"/><path d="m223.9 35.9v-2.1l-1.8-1.1" stroke="#000" stroke-miterlimit="10"/><path d="m189.1 13.8-1.8-1-1.9 1.1" stroke="#000" stroke-miterlimit="10"/><path d="m43.2 141.1-1.8-1v-2.2" stroke="#000" stroke-miterlimit="10"/><path d="m41.2 99.9v-2.1l1.9-1" stroke="#000" stroke-miterlimit="10"/><path d="m77.6 36.4v-2.1l1.8-1" stroke="#000" stroke-miterlimit="10"/><path d="m112.3 14.1 1.8-1 1.8 1" stroke="#000" stroke-miterlimit="10"/><path d="m52.321 242.8c1.513-.881.332-2.909-1.181-2.028s-2.693-1.147-1.181-2.028c1.513-.881.332-2.909-1.181-2.028-1.512.88-2.693-1.148-1.18-2.029 1.512-.881.331-2.909-1.181-2.028-1.513.881-2.694-1.147-1.181-2.028s.332-2.909-1.181-2.028-2.694-1.147-1.181-2.028.332-2.909-1.181-2.028c-1.513.88-2.694-1.148-1.181-2.029 1.513-.88.332-2.909-1.181-2.028s-2.694-1.147-1.181-2.028.332-2.909-1.181-2.028-2.694-1.147-1.181-2.028.332-2.909-1.181-2.028-2.694-1.148-1.181-2.028c1.513-.881.332-2.91-1.181-2.029s-2.693-1.147-1.181-2.028" stroke="#7f7f7f"/></g></svg>
